packages/symbols/svgs/duotone/megaphone-duotone.svg

<svg width="24" height="24" viewBox="0 0 24 24" fill="none" xmlns="http://www.w3.org/2000/svg">
<path fill-rule="evenodd" clip-rule="evenodd" d="M8.9623 13.0724C9.47457 12.866 10.0572 13.114 10.2636 13.6263L12.783 19.8794C13.0792 20.617 13.0705 21.442 12.7589 22.1733C12.4472 22.9045 11.8582 23.4821 11.121 23.7794L10.747 22.8519L11.1196 23.78C10.382 24.0761 9.55698 24.0674 8.82576 23.7558C8.09497 23.4444 7.51755 22.8558 7.22012 22.1193C7.21994 22.1189 7.21977 22.1184 7.21959 22.118L4.0736 14.3765C3.86567 13.8648 4.11189 13.2815 4.62354 13.0736C5.13519 12.8656 5.71852 13.1119 5.92644 13.6235L9.07445 21.37C9.17354 21.6157 9.3661 21.8121 9.60984 21.9159C9.85333 22.0197 10.128 22.0227 10.3737 21.9243C10.6191 21.8251 10.8152 21.6327 10.919 21.3892C11.0228 21.1456 11.0257 20.8708 10.9272 20.6251C10.9272 20.6249 10.9273 20.6253 10.9272 20.6251L8.40848 14.3737C8.20208 13.8614 8.45004 13.2788 8.9623 13.0724Z" fill="black"/>
<path fill-rule="evenodd" clip-rule="evenodd" d="M19.5257 1.14935C19.8205 1.33156 20 1.65342 20 2V18C20 18.3466 19.8205 18.6684 19.5257 18.8507C19.2309 19.0329 18.8628 19.0494 18.5528 18.8944L10.7639 15H5C3.67392 15 2.40215 14.4732 1.46447 13.5355C0.526784 12.5979 0 11.3261 0 10C0 8.67392 0.526784 7.40215 1.46447 6.46447C2.40215 5.52678 3.67392 5 5 5H10.7639L18.5528 1.10557C18.8628 0.95058 19.2309 0.967144 19.5257 1.14935ZM18 3.61804L11.4472 6.89443C11.3084 6.96386 11.1552 7 11 7H5C4.20435 7 3.44129 7.31607 2.87868 7.87868C2.31607 8.44129 2 9.20435 2 10C2 10.7957 2.31607 11.5587 2.87868 12.1213C3.44129 12.6839 4.20435 13 5 13H11C11.1552 13 11.3084 13.0361 11.4472 13.1056L18 16.382V3.61804Z" fill="black"/>
<path opacity="0.5" d="M21 7V13C21.7956 13 22.5587 12.6839 23.1213 12.1213C23.6839 11.5587 24 10.7956 24 10C24 9.20435 23.6839 8.44129 23.1213 7.87868C22.5587 7.31607 21.7956 7 21 7Z" fill="black"/>
</svg>

<svg width="24" height="24" viewBox="0 0 24 24" xmlns="http://www.w3.org/2000/svg"><path fill-rule="evenodd" clip-rule="evenodd" d="M8.962 13.072a1 1 0 0 1 1.302.554l2.519 6.253a3 3 0 0 1-1.662 3.9l-.374-.927.373.928a3 3 0 0 1-3.9-1.66v-.002l-3.146-7.741a1 1 0 1 1 1.852-.754l3.148 7.747a1 1 0 0 0 1.845.02 1 1 0 0 0 .008-.765l-2.519-6.251a1 1 0 0 1 .554-1.302Z"/><path fill-rule="evenodd" clip-rule="evenodd" d="M19.526 1.15A1 1 0 0 1 20 2v16a1 1 0 0 1-1.447.894L10.763 15H5A5 5 0 0 1 5 5h5.764l7.789-3.894a1 1 0 0 1 .973.043ZM18 3.617l-6.553 3.276A1 1 0 0 1 11 7H5a3 3 0 1 0 0 6h6c.155 0 .308.036.447.106L18 16.382V3.618Z"/><path opacity=".5" d="M21 7v6a3 3 0 0 0 0-6Z"/></svg>
